svg/fluentui-system-icons/ic_fluent_document_header_20_regular.svg

<svg width="20" height="20" viewBox="0 0 20 20" fill="none" xmlns="http://www.w3.org/2000/svg">
<path d="M6 2C4.89543 2 4 2.89543 4 4V16C4 17.1046 4.89543 18 6 18H14C15.1046 18 16 17.1046 16 16V4C16 2.89543 15.1046 2 14 2H6ZM5 4C5 3.44772 5.44772 3 6 3H14C14.5523 3 15 3.44772 15 4V16C15 16.5523 14.5523 17 14 17H6C5.44772 17 5 16.5523 5 16V4ZM7 4C6.44772 4 6 4.44772 6 5C6 5.55228 6.44772 6 7 6H13C13.5523 6 14 5.55228 14 5C14 4.44772 13.5523 4 13 4H7Z" fill="#212121"/>
</svg>

<svg xmlns="http://www.w3.org/2000/svg" width="20" height="20"><path d="M6 2a2 2 0 0 0-2 2v12a2 2 0 0 0 2 2h8a2 2 0 0 0 2-2V4a2 2 0 0 0-2-2H6ZM5 4a1 1 0 0 1 1-1h8a1 1 0 0 1 1 1v12a1 1 0 0 1-1 1H6a1 1 0 0 1-1-1V4Zm2 0a1 1 0 0 0 0 2h6a1 1 0 1 0 0-2H7Z"/></svg>
